assets/images/main/lnb_btn.svg

<svg width="47" height="46" viewBox="0 0 47 46" fill="none" xmlns="http://www.w3.org/2000/svg">
<path d="M0.53125 0H46.5312V46H0.53125V0Z" fill="#570D0D" fill-opacity="0.8"/>
<mask id="mask0_690_4456" style="mask-type:alpha" maskUnits="userSpaceOnUse" x="11" y="11" width="25" height="24">
<rect x="11.5312" y="11" width="24" height="24" fill="#D9D9D9"/>
</mask>
<g mask="url(#mask0_690_4456)">
<path d="M21.2616 22.7049L27.2157 28.4178C27.3728 28.5685 27.4493 28.7459 27.4453 28.95C27.4413 29.1543 27.3607 29.3318 27.2037 29.4824C27.0465 29.6331 26.8615 29.7084 26.6488 29.7084C26.436 29.7084 26.2511 29.6331 26.0939 29.4824L20.0305 23.6762C19.8875 23.5391 19.7816 23.3854 19.7127 23.2153C19.6438 23.0452 19.6094 22.875 19.6094 22.7049C19.6094 22.5348 19.6438 22.3646 19.7127 22.1945C19.7816 22.0243 19.8875 21.8707 20.0305 21.7336L26.0939 15.9156C26.2511 15.7649 26.4381 15.6915 26.6549 15.6955C26.8718 15.6994 27.0587 15.7767 27.2157 15.9273C27.3728 16.078 27.4513 16.2555 27.4513 16.4598C27.4513 16.6639 27.3728 16.8413 27.2157 16.992L21.2616 22.7049Z" fill="white"/>
</g>
</svg>

<svg width="47" height="46" fill="none" xmlns="http://www.w3.org/2000/svg"><path d="M.531 0h46v46h-46V0Z" fill="#570D0D" fill-opacity=".8"/><mask id="a" style="mask-type:alpha" maskUnits="userSpaceOnUse" x="11" y="11" width="25" height="24"><path fill="#D9D9D9" d="M11.531 11h24v24h-24z"/></mask><g mask="url(#a)"><path d="m21.262 22.705 5.954 5.713c.157.15.233.328.23.532a.736.736 0 0 1-.242.532.776.776 0 0 1-.555.226.775.775 0 0 1-.555-.226l-6.064-5.806a1.35 1.35 0 0 1-.421-.971 1.35 1.35 0 0 1 .421-.971l6.064-5.818a.761.761 0 0 1 .56-.22.804.804 0 0 1 .562.231c.157.151.235.329.235.533a.714.714 0 0 1-.235.532l-5.954 5.713Z" fill="#fff"/></g></svg>
